src/assets/Card3.svg

<svg width="80" height="80" viewBox="0 0 80 80" fill="none" xmlns="http://www.w3.org/2000/svg">
<g clip-path="url(#clip0_3589_18729)">
<path d="M63.332 25V8.33333C63.332 6.1232 62.4541 4.00358 60.8913 2.44078C59.3284 0.877974 57.2088 0 54.9987 0L24.9987 0C22.7886 0 20.6689 0.877974 19.1061 2.44078C17.5433 4.00358 16.6654 6.1232 16.6654 8.33333V25C14.4552 25 12.3356 25.878 10.7728 27.4408C9.21 29.0036 8.33203 31.1232 8.33203 33.3333V43.3333C8.33203 45.5435 9.21 47.6631 10.7728 49.2259C12.3356 50.7887 14.4552 51.6667 16.6654 51.6667V71.6667C16.6654 72.761 16.8809 73.8447 17.2997 74.8557C17.7185 75.8667 18.3323 76.7854 19.1061 77.5592C19.88 78.333 20.7986 78.9469 21.8097 79.3657C22.8207 79.7844 23.9043 80 24.9987 80H54.9987C56.093 80 57.1767 79.7844 58.1877 79.3657C59.1988 78.9469 60.1174 78.333 60.8913 77.5592C61.6651 76.7854 62.2789 75.8667 62.6977 74.8557C63.1165 73.8447 63.332 72.761 63.332 71.6667V51.6667C65.5422 51.6667 67.6618 50.7887 69.2246 49.2259C70.7874 47.6631 71.6654 45.5435 71.6654 43.3333V33.3333C71.6654 31.1232 70.7874 29.0036 69.2246 27.4408C67.6618 25.878 65.5422 25 63.332 25ZM48.332 3.33333V5C48.332 5.44203 48.1564 5.86595 47.8439 6.17851C47.5313 6.49107 47.1074 6.66667 46.6654 6.66667H33.332C32.89 6.66667 32.4661 6.49107 32.1535 6.17851C31.841 5.86595 31.6654 5.44203 31.6654 5V3.33333H48.332ZM19.9987 8.33333C19.9987 7.00725 20.5255 5.73548 21.4632 4.7978C22.4008 3.86012 23.6726 3.33333 24.9987 3.33333H28.332V5C28.332 6.32608 28.8588 7.59785 29.7965 8.53553C30.7342 9.47322 32.0059 10 33.332 10H46.6654C47.9914 10 49.2632 9.47322 50.2009 8.53553C51.1386 7.59785 51.6654 6.32608 51.6654 5V3.33333H54.9987C56.3248 3.33333 57.5965 3.86012 58.5342 4.7978C59.4719 5.73548 59.9987 7.00725 59.9987 8.33333V25H19.9987V8.33333ZM59.9987 71.6667C59.9987 72.9927 59.4719 74.2645 58.5342 75.2022C57.5965 76.1399 56.3248 76.6667 54.9987 76.6667H24.9987C23.6726 76.6667 22.4008 76.1399 21.4632 75.2022C20.5255 74.2645 19.9987 72.9927 19.9987 71.6667V51.6667H31.5487C31.8232 51.6681 32.0931 51.7373 32.3344 51.8681C32.5758 51.999 32.7811 52.1874 32.932 52.4167L35.832 56.7667C36.2881 57.4543 36.9073 58.0183 37.6343 58.4085C38.3613 58.7986 39.1736 59.0028 39.9987 59.0028C40.8238 59.0028 41.6361 58.7986 42.3631 58.4085C43.0901 58.0183 43.7093 57.4543 44.1654 56.7667L47.0654 52.4167C47.2163 52.1874 47.4216 51.999 47.6629 51.8681C47.9043 51.7373 48.1742 51.6681 48.4487 51.6667H59.9987V71.6667ZM68.332 43.3333C68.332 44.6594 67.8052 45.9312 66.8676 46.8689C65.9299 47.8065 64.6581 48.3333 63.332 48.3333H48.4487C47.6239 48.333 46.8117 48.5368 46.0847 48.9265C45.3577 49.3161 44.7384 49.8796 44.282 50.5667L41.382 55C41.2296 55.2269 41.0237 55.4128 40.7824 55.5413C40.5412 55.6698 40.272 55.7371 39.9987 55.7371C39.7254 55.7371 39.4562 55.6698 39.215 55.5413C38.9737 55.4128 38.7678 55.2269 38.6154 55L35.7154 50.65C35.2686 49.9475 34.6535 49.3676 33.9259 48.9631C33.1983 48.5585 32.3812 48.3421 31.5487 48.3333H16.6654C15.3393 48.3333 14.0675 47.8065 13.1298 46.8689C12.1921 45.9312 11.6654 44.6594 11.6654 43.3333V33.3333C11.6654 32.0073 12.1921 30.7355 13.1298 29.7978C14.0675 28.8601 15.3393 28.3333 16.6654 28.3333H63.332C64.6581 28.3333 65.9299 28.8601 66.8676 29.7978C67.8052 30.7355 68.332 32.0073 68.332 33.3333V43.3333Z" fill="black"/>
<path d="M44.9992 35.0025H42.3159L41.6659 32.8025C41.5563 32.4691 41.3442 32.1787 41.0599 31.9729C40.7756 31.7671 40.4335 31.6562 40.0826 31.6562C39.7316 31.6562 39.3895 31.7671 39.1052 31.9729C38.8209 32.1787 38.6088 32.4691 38.4992 32.8025L37.6826 35.0025H34.9992C34.6547 35.0039 34.3191 35.112 34.0385 35.312C33.7579 35.5119 33.5462 35.7939 33.4326 36.1192C33.3191 36.4448 33.3095 36.7976 33.4051 37.129C33.5006 37.4603 33.6965 37.7539 33.9659 37.9692L36.1159 39.6358L35.0826 42.7358C35.0826 42.7358 35.0826 42.8525 35.0826 42.9025C35.0422 43.0442 35.0143 43.1892 34.9992 43.3358C34.991 43.4357 34.991 43.536 34.9992 43.6358C34.9936 43.7413 34.9936 43.847 34.9992 43.9525C35.0325 44.0549 35.0833 44.1507 35.1492 44.2358C35.1461 44.2858 35.1461 44.3359 35.1492 44.3858C35.1492 44.3858 35.1492 44.3858 35.2492 44.4692C35.344 44.5768 35.4568 44.667 35.5826 44.7358L35.8326 44.8858H35.9159C36.0264 44.9016 36.1387 44.9016 36.2492 44.8858C36.3763 44.9587 36.5195 44.9988 36.6659 45.0025H36.8992C37.0198 44.9847 37.1375 44.9511 37.2492 44.9025L37.4826 44.7858C37.4826 44.7858 37.5826 44.7858 37.6492 44.6858L39.9992 42.8025L42.2992 44.6358C42.4038 44.7218 42.5221 44.7894 42.6492 44.8358H42.7659C42.9454 44.9194 43.1364 44.9755 43.3326 45.0025C43.5132 44.998 43.6925 44.97 43.8659 44.9192H43.9492L44.1992 44.7692C44.325 44.7003 44.4378 44.6101 44.5326 44.5025C44.5326 44.5025 44.5326 44.5025 44.6326 44.4192C44.6356 44.3692 44.6356 44.3191 44.6326 44.2692C44.6985 44.1841 44.7493 44.0882 44.7826 43.9858C44.7881 43.8803 44.7881 43.7746 44.7826 43.6692C44.8666 43.5662 44.9393 43.4545 44.9992 43.3358C45.0073 43.2193 45.0073 43.1024 44.9992 42.9858C44.9992 42.9858 44.9992 42.8858 44.9992 42.8192L43.9659 39.7192L46.1326 38.0525C46.4508 37.8464 46.6892 37.538 46.8085 37.1781C46.9279 36.8182 46.9209 36.4285 46.7889 36.0731C46.6568 35.7177 46.4075 35.4179 46.0822 35.2233C45.7568 35.0287 45.3748 34.9508 44.9992 35.0025Z" fill="black"/>
<path d="M26.6652 35.0025H23.9819L23.3319 32.8025C23.2223 32.4691 23.0102 32.1787 22.7259 31.9729C22.4416 31.7671 22.0996 31.6562 21.7486 31.6562C21.3976 31.6562 21.0555 31.7671 20.7712 31.9729C20.4869 32.1787 20.2748 32.4691 20.1652 32.8025L19.3486 35.0025H16.6652C16.3207 35.0039 15.9851 35.112 15.7045 35.312C15.424 35.5119 15.2123 35.7939 15.0986 36.1192C14.9852 36.4448 14.9756 36.7976 15.0711 37.129C15.1666 37.4603 15.3625 37.7539 15.6319 37.9692L17.7819 39.6358L16.7486 42.7358C16.7486 42.7358 16.7486 42.8525 16.7486 42.9025C16.7082 43.0442 16.6804 43.1892 16.6652 43.3358C16.657 43.4357 16.657 43.536 16.6652 43.6358C16.6872 43.7428 16.715 43.8485 16.7486 43.9525C16.7819 44.0549 16.8326 44.1507 16.8986 44.2358C16.9228 44.2877 16.9506 44.3379 16.9819 44.3858C16.9819 44.3858 16.9819 44.3858 17.0819 44.4692C17.1767 44.5768 17.2895 44.667 17.4152 44.7358L17.6652 44.8858C17.7758 44.9016 17.888 44.9016 17.9986 44.8858C18.1007 44.9468 18.2141 44.9864 18.3319 45.0025H18.5652C18.6858 44.9847 18.8035 44.9511 18.9152 44.9025L19.1486 44.7858L19.3152 44.6858L21.6652 42.8025L23.9652 44.6358C24.0698 44.7218 24.1881 44.7894 24.3152 44.8358H24.4319C24.6114 44.9194 24.8024 44.9755 24.9986 45.0025C25.1792 44.998 25.3585 44.97 25.5319 44.9192L25.7819 44.7692C25.9077 44.7003 26.0205 44.6101 26.1152 44.5025C26.1152 44.5025 26.1152 44.5025 26.2152 44.4192C26.2465 44.3712 26.2744 44.3211 26.2986 44.2692C26.3645 44.1841 26.4153 44.0882 26.4486 43.9858C26.4821 43.8819 26.5099 43.7762 26.5319 43.6692C26.5871 43.5627 26.6318 43.451 26.6652 43.3358C26.6733 43.2193 26.6733 43.1024 26.6652 42.9858C26.6652 42.9858 26.6652 42.8858 26.6652 42.8192L25.6319 39.7192L27.7986 38.0525C28.1168 37.8464 28.3552 37.538 28.4746 37.1781C28.5939 36.8182 28.5869 36.4285 28.4549 36.0731C28.3228 35.7177 28.0735 35.4179 27.7482 35.2233C27.4228 35.0287 27.0408 34.9508 26.6652 35.0025Z" fill="black"/>
<path d="M63.3313 35.0025H60.6479L59.9979 32.8025C59.8883 32.4691 59.6762 32.1787 59.3919 31.9729C59.1076 31.7671 58.7656 31.6562 58.4146 31.6562C58.0636 31.6562 57.7216 31.7671 57.4372 31.9729C57.1529 32.1787 56.9408 32.4691 56.8312 32.8025L56.0146 35.0025H53.3313C52.9867 35.0039 52.6511 35.112 52.3705 35.312C52.09 35.5119 51.8783 35.7939 51.7646 36.1192C51.6512 36.4448 51.6416 36.7976 51.7371 37.129C51.8326 37.4603 52.0286 37.7539 52.2979 37.9692L54.4479 39.6358L53.4146 42.7358C53.4146 42.7358 53.4146 42.8525 53.4146 42.9025C53.3743 43.0442 53.3464 43.1892 53.3313 43.3358C53.3231 43.4357 53.3231 43.536 53.3313 43.6358C53.3257 43.7413 53.3257 43.847 53.3313 43.9525C53.3645 44.0549 53.4153 44.1507 53.4813 44.2358C53.4782 44.2858 53.4782 44.3359 53.4813 44.3858C53.4813 44.3858 53.4813 44.3858 53.5813 44.4692C53.676 44.5768 53.7888 44.667 53.9146 44.7358L54.1646 44.8858C54.2751 44.9016 54.3874 44.9016 54.4979 44.8858C54.6494 44.9734 54.8234 45.014 54.9979 45.0025H55.2313C55.3518 44.9847 55.4695 44.9511 55.5812 44.9025L55.8146 44.7858L55.9813 44.6858L58.3313 42.8025L60.6313 44.6358C60.7358 44.7218 60.8541 44.7894 60.9813 44.8358H61.0979C61.2774 44.9194 61.4684 44.9755 61.6646 45.0025C61.8452 44.998 62.0245 44.97 62.1979 44.9192L62.4479 44.7692C62.5737 44.7003 62.6865 44.6101 62.7812 44.5025C62.7812 44.5025 62.7813 44.5025 62.8813 44.4192C62.8843 44.3692 62.8843 44.3191 62.8813 44.2692C62.9472 44.1841 62.998 44.0882 63.0313 43.9858C63.0368 43.8804 63.0368 43.7746 63.0313 43.6692C63.1445 43.5708 63.2453 43.4588 63.3313 43.3358C63.3393 43.2193 63.3393 43.1024 63.3313 42.9858C63.3313 42.9858 63.3313 42.8858 63.3313 42.8192L62.2979 39.7192L64.4646 38.0525C64.7828 37.8464 65.0213 37.538 65.1406 37.1781C65.2599 36.8182 65.2529 36.4285 65.1209 36.0731C64.9888 35.7177 64.7396 35.4179 64.4142 35.2233C64.0888 35.0287 63.7068 34.9508 63.3313 35.0025Z" fill="black"/>
<path d="M28.332 71.6667C28.332 72.1087 28.5076 72.5326 28.8202 72.8452C29.1327 73.1577 29.5567 73.3333 29.9987 73.3333H49.9987C50.4407 73.3333 50.8647 73.1577 51.1772 72.8452C51.4898 72.5326 51.6654 72.1087 51.6654 71.6667C51.6654 71.2246 51.4898 70.8007 51.1772 70.4882C50.8647 70.1756 50.4407 70 49.9987 70H29.9987C29.5567 70 29.1327 70.1756 28.8202 70.4882C28.5076 70.8007 28.332 71.2246 28.332 71.6667Z" fill="black"/>
</g>
<defs>
<clipPath id="clip0_3589_18729">
<rect width="80" height="80" fill="white"/>
</clipPath>
</defs>
</svg>

<svg xmlns="http://www.w3.org/2000/svg" width="80" height="80" fill="none" viewBox="0 0 80 80"><g fill="#000" clip-path="url(#a)"><path d="M63.332 25V8.333A8.333 8.333 0 0 0 54.999 0h-30a8.333 8.333 0 0 0-8.334 8.333V25a8.333 8.333 0 0 0-8.333 8.333v10a8.333 8.333 0 0 0 8.333 8.334v20A8.333 8.333 0 0 0 25 80h30a8.335 8.335 0 0 0 8.333-8.333v-20a8.333 8.333 0 0 0 8.333-8.334v-10A8.333 8.333 0 0 0 63.332 25m-15-21.667V5a1.667 1.667 0 0 1-1.667 1.667H33.332A1.667 1.667 0 0 1 31.665 5V3.333zm-28.333 5a5 5 0 0 1 5-5h3.333V5a5 5 0 0 0 5 5h13.333a5 5 0 0 0 5-5V3.333H55a5 5 0 0 1 5 5V25h-40zm40 63.334a5 5 0 0 1-5 5h-30a5 5 0 0 1-5-5v-20h11.55a1.67 1.67 0 0 1 1.383.75l2.9 4.35a5 5 0 0 0 8.333 0l2.9-4.35a1.67 1.67 0 0 1 1.384-.75h11.55zm8.333-28.334a5 5 0 0 1-5 5H48.449a5 5 0 0 0-4.167 2.234L41.382 55a1.665 1.665 0 0 1-2.767 0l-2.9-4.35a5 5 0 0 0-4.166-2.317H16.665a5 5 0 0 1-5-5v-10a5 5 0 0 1 5-5h46.667a5 5 0 0 1 5 5z"/><path d="M45 35.003h-2.684l-.65-2.2a1.667 1.667 0 0 0-3.167 0l-.816 2.2h-2.684a1.667 1.667 0 0 0-1.033 2.966l2.15 1.667-1.033 3.1v.167q-.06.212-.084.433-.012.15 0 .3a3 3 0 0 0 0 .316 1 1 0 0 0 .15.284q-.005.075 0 .15l.1.083q.144.163.334.267l.25.15h.083q.166.024.333 0c.127.073.27.113.417.116h.233q.182-.025.35-.1l.234-.116s.1 0 .166-.1L40 42.803l2.3 1.833q.158.13.35.2h.117q.27.126.567.166.272-.006.533-.083h.083l.25-.15q.19-.104.334-.267l.1-.083q.004-.075 0-.15a1 1 0 0 0 .15-.283 3 3 0 0 0 0-.317q.126-.154.216-.333a3 3 0 0 0 0-.35v-.167l-1.033-3.1 2.167-1.666a1.666 1.666 0 0 0-1.134-3.05M26.665 35.003h-2.683l-.65-2.2a1.667 1.667 0 0 0-3.167 0l-.816 2.2h-2.684a1.667 1.667 0 0 0-1.033 2.966l2.15 1.667-1.033 3.1v.167q-.06.212-.084.433-.012.15 0 .3.033.16.084.316a1 1 0 0 0 .15.284q.036.078.083.15l.1.083q.143.163.333.267l.25.15q.166.024.334 0 .155.091.333.116h.233q.181-.025.35-.1l.234-.116.166-.1 2.35-1.883 2.3 1.833q.159.13.35.2h.117q.27.126.567.166.272-.006.533-.083l.25-.15q.19-.104.333-.267l.1-.083q.048-.072.084-.15a1 1 0 0 0 .15-.283q.049-.156.083-.317.083-.16.133-.333a3 3 0 0 0 0-.35v-.167l-1.033-3.1 2.167-1.666a1.667 1.667 0 0 0-1.134-3.05M63.331 35.003h-2.683l-.65-2.2a1.667 1.667 0 0 0-3.167 0l-.816 2.2H53.33a1.667 1.667 0 0 0-1.033 2.966l2.15 1.667-1.033 3.1v.167q-.06.212-.084.433-.012.15 0 .3a3 3 0 0 0 0 .316 1 1 0 0 0 .15.284q-.005.075 0 .15l.1.083q.144.163.334.267l.25.15q.166.024.333 0a.9.9 0 0 0 .5.116h.233q.181-.025.35-.1l.234-.116.166-.1 2.35-1.883 2.3 1.833q.158.13.35.2h.117q.27.126.567.166.272-.006.533-.083l.25-.15q.19-.104.333-.267l.1-.083q.005-.075 0-.15a1 1 0 0 0 .15-.283 3 3 0 0 0 0-.317q.171-.148.3-.333a3 3 0 0 0 0-.35v-.167l-1.033-3.1 2.167-1.666a1.667 1.667 0 0 0-1.134-3.05M28.332 71.667a1.667 1.667 0 0 0 1.667 1.666h20a1.667 1.667 0 0 0 0-3.333h-20a1.666 1.666 0 0 0-1.667 1.667"/></g><defs><clipPath id="a"><path fill="#fff" d="M0 0h80v80H0z"/></clipPath></defs></svg>
